public/icon/facebook.svg

<svg aria-hidden="true" focusable="false" data-prefix="fab" data-icon="facebook-f" class="svg-inline--fa fa-facebook-f fa-w-10" role="img" xmlns="http://www.w3.org/2000/svg" viewBox="0 0 320 512"><path fill="currentColor" d="M279.14 288l14.22-92.66h-88.91v-60.13c0-25.35 12.42-50.06 52.24-50.06h40.42V6.26S260.43 0 225.36 0c-73.22 0-121.08 44.38-121.08 124.72v70.62H22.89V288h81.39v224h100.17V288z"></path></svg>

<svg width="320" height="512" viewBox="0 0 320 512" fill="none" xmlns="http://www.w3.org/2000/svg">
<path d="M279.14 288L293.36 195.34H204.45V135.21C204.45 109.86 216.87 85.15 256.69 85.15H297.11V6.26C297.11 6.26 260.43 0 225.36 0C152.14 0 104.28 44.38 104.28 124.72V195.34H22.89V288H104.28V512H204.45V288H279.14Z" fill="white"/>
</svg>
